X:32
T: Changgong ge
N: C1530
O: China, Fujian, Quanzhou
S: II, 594]
R: Xiaodiao. Changgong ku]
M: 2/4
L: 1/16
K: E
B2B4c2 | B4G2F2 | E2F4G2 | F8
B2B4c2 | B4G2F2 | E2F4G2 | F3G
E2F2 | E3GFGE2 | z2E4C2 | B,4
F2G2 | E3GF2E2 | z2E4C2 | B,8

